packages/icons/src/svg/smiley-satisfied.svg

<svg xmlns="http://www.w3.org/2000/svg" viewBox="0 0 16 16">
  <path d="M10.5167,9.9574 C9.5757,10.6614 8.7407,10.8724 8.0177,10.8744 C7.2957,10.8744 6.6757,10.6504 6.2357,10.4224 C6.0167,10.3084 5.8437,10.1944 5.7277,10.1114 C5.6697,10.0694 5.6277,10.0364 5.6007,10.0154 C5.5877,10.0044 5.5777,9.9954 5.5727,9.9914 L5.5697,9.9884 C5.3357,9.7794 4.9767,9.7984 4.7677,10.0314 C4.5597,10.2654 4.5787,10.6234 4.8117,10.8324 C4.8627,10.8694 6.0987,11.9974 8.0177,12.0084 L8.0277,12.0084 C8.9817,12.0084 10.0867,11.7024 11.1987,10.8634 C11.4487,10.6764 11.4987,10.3204 11.3097,10.0694 C11.1217,9.8194 10.7667,9.7704 10.5167,9.9574 M10.5157,5.3364 C9.8527,5.3364 9.3157,5.8734 9.3157,6.5364 C9.3157,7.1984 9.8527,7.7364 10.5157,7.7364 C11.1787,7.7364 11.7157,7.1984 11.7157,6.5364 C11.7157,5.8734 11.1787,5.3364 10.5157,5.3364 M6.7727,6.5364 C6.7727,5.8734 6.2357,5.3364 5.5727,5.3364 C4.9097,5.3364 4.3727,5.8734 4.3727,6.5364 C4.3727,7.1984 4.9097,7.7364 5.5727,7.7364 C6.2357,7.7364 6.7727,7.1984 6.7727,6.5364 M12.8547,12.8544 C11.6107,14.0994 9.8977,14.8654 7.9997,14.8654 C6.1017,14.8654 4.3887,14.0994 3.1447,12.8544 C1.9007,11.6104 1.1337,9.8974 1.1337,8.0004 C1.1337,6.1034 1.9007,4.3894 3.1447,3.1454 C4.3887,1.9004 6.1017,1.1344 7.9997,1.1344 C9.8977,1.1344 11.6107,1.9004 12.8547,3.1454 C14.0987,4.3894 14.8657,6.1034 14.8657,8.0004 C14.8657,9.8974 14.0987,11.6104 12.8547,12.8544 M7.9997,0.0004 C3.5807,0.0004 -0.0003,3.5814 -0.0003,8.0004 C-0.0003,12.4184 3.5807,16.0004 7.9997,16.0004 C12.4177,16.0004 15.9997,12.4184 15.9997,8.0004 C15.9997,3.5814 12.4177,0.0004 7.9997,0.0004"/>
</svg>

<svg xmlns="http://www.w3.org/2000/svg" viewBox="0 0 16 16">
  <path d="M10.517 9.957c-.941.704-1.776.915-2.5.917a3.905 3.905 0 0 1-1.781-.452 4.257 4.257 0 0 1-.508-.31c-.058-.043-.1-.076-.127-.097l-.028-.024-.003-.003a.569.569 0 0 0-.802.043.568.568 0 0 0 .044.801c.05.037 1.287 1.165 3.206 1.176h.01c.954 0 2.059-.306 3.17-1.145a.566.566 0 1 0-.681-.906m-.001-4.62a1.2 1.2 0 1 0-.001 2.399 1.2 1.2 0 0 0 0-2.4m-3.742 1.2a1.2 1.2 0 1 0-2.4 0 1.2 1.2 0 0 0 2.4 0m6.082 6.318A6.833 6.833 0 0 1 8 14.865a6.833 6.833 0 0 1-4.855-2.01A6.837 6.837 0 0 1 1.134 8a6.84 6.84 0 0 1 2.01-4.855A6.833 6.833 0 0 1 8 1.135c1.898 0 3.61.765 4.855 2.01A6.84 6.84 0 0 1 14.865 8c0 1.897-.766 3.61-2.01 4.854M8 0a8 8 0 0 0-8 8 8 8 0 1 0 16 0 8 8 0 0 0-8-8"/>
</svg>
